X: 721
T: Aherne's Egg
R: jig
M: 6/8
K: Dmixolydian
AFD DCA,|CDE DFA|dAd fdA|dcA ~G3|
AdB c2A|BGA FDE|=FCA, AG^F|1 GEA DFG:|2 GEA DFA||
dfd c2d|BGD GEC|A,DF GAG|EAF GAB|
AFA d2B|cGE CEG|FAF GEA|1 DED DFA:|2 DED DFG||

